;FLAVOR:Marlin
;TIME:3401
;Filament used: 1.83084m
;Layer height: 0.2
;Generated with Cura_SteamEngine 3.2.1
M190 S60
M104 S205
M109 S205
M82 ;absolute extrusion mode
G21       ;metric value
G90       ;Absolute positioning
M140 60  ;faccio partire il lettino
M104 S190
G28       ;X0 Y0 Z0 Home axis
G29       ;auto bed leveling
M109 T0 S190  ;aspetta temperatura estrusore
M190 S60  ;aspetta temperatura lettino
M82                  ; Extruder in absolute mode
G92 E0               ; Reset extruder position
G1 F200 E3           ;extrude 3mm of feed stock
G92 E0               ;zero the extruded length again
;LAYER_COUNT:33
;LAYER:0
M107
G0 F4200 X49.943 Y59.346 Z0.3
;TYPE:SKIRT
G1 F1800 X50.46 Y58.957 E0.01521
G1 X51.022 Y58.634 E0.03045
G1 X51.619 Y58.383 E0.04568
G1 X52.243 Y58.207 E0.06093
G1 X52.883 Y58.11 E0.07615
G1 X53.224 Y58.091 E0.08418
G1 X55.667 Y58.032 E0.14164
G1 X61.101 Y57.688 E0.26966
G1 X66.393 Y57.052 E0.39499
G1 X71.693 Y56.109 E0.52157
G1 X76.872 Y54.881 E0.64672
G1 X82.075 Y53.335 E0.77434
G1 X84.524 Y52.49 E0.83526
G1 X89.559 Y50.513 E0.96245
G1 X94.515 Y48.239 E1.09066
G1 X95.119 Y48.006 E1.10588
G1 X95.748 Y47.849 E1.12113
G1 X96.704 Y47.761 E1.1437
G1 X112.692 Y47.76 E1.51963
G1 X113.338 Y47.8 E1.53485
G1 X113.975 Y47.919 E1.55008
G1 X114.592 Y48.116 E1.56531
G1 X115.18 Y48.387 E1.58054
G1 X115.731 Y48.729 E1.59579
G1 X116.235 Y49.136 E1.61102
G1 X116.685 Y49.601 E1.62623
G1 X116.917 Y49.894 E1.63502
G1 X118.987 Y52.7 E1.71701
G1 X122.388 Y56.904 E1.84416
G1 X125.99 Y60.876 E1.97023
G1 X129.795 Y64.622 E2.09578
G1 X134.641 Y68.847 E2.24695
G1 X135.102 Y69.302 E2.26218
G1 X135.504 Y69.81 E2.27742
G1 X135.84 Y70.364 E2.29265
G1 X136.105 Y70.955 E2.30788
G1 X136.295 Y71.574 E2.3231
G1 X136.408 Y72.212 E2.33834
G1 X136.441 Y72.804 E2.35228
G1 X136.441 Y129.192 E3.67814
G1 X136.401 Y129.839 E3.69339
G1 X136.282 Y130.475 E3.7086
G1 X136.085 Y131.092 E3.72383
G1 X135.814 Y131.681 E3.73907
G1 X135.472 Y132.231 E3.7543
G1 X135.065 Y132.735 E3.76953
G1 X134.381 Y133.361 E3.79134
G1 X133.302 Y134.187 E3.82329
G1 X131.761 Y135.388 E3.86923
G1 X127.642 Y138.858 E3.99586
G1 X123.704 Y142.576 E4.12321
G1 X121.897 Y144.433 E4.18413
G1 X117.567 Y149.349 E4.33817
G1 X116.712 Y150.367 E4.36943
G1 X116.266 Y150.837 E4.38466
G1 X115.765 Y151.248 E4.3999
G1 X115.218 Y151.594 E4.41512
G1 X114.632 Y151.87 E4.43035
G1 X114.016 Y152.071 E4.44558
G1 X113.38 Y152.196 E4.46082
G1 X112.691 Y152.241 E4.47706
G1 X96.696 Y152.239 E4.85315
G1 X96.05 Y152.199 E4.86837
G1 X95.44 Y152.086 E4.88296
G1 X89.754 Y150.684 E5.02066
G1 X87.238 Y150.181 E5.08099
G1 X81.889 Y149.345 E5.20829
G1 X76.542 Y148.815 E5.33463
G1 X73.902 Y148.666 E5.3968
G1 X69.829 Y148.58 E5.49259
G1 X53.349 Y148.57 E5.88009
G1 X52.702 Y148.53 E5.89533
G1 X52.066 Y148.41 E5.91055
G1 X51.449 Y148.213 E5.92578
G1 X50.861 Y147.941 E5.94101
G1 X50.31 Y147.599 E5.95626
G1 X49.807 Y147.192 E5.97148
G1 X49.357 Y146.726 E5.98671
G1 X48.968 Y146.208 E6.00194
G1 X48.645 Y145.646 E6.01718
G1 X48.395 Y145.049 E6.0324
G1 X48.22 Y144.425 E6.04764
G1 X48.123 Y143.785 E6.06286
G1 X48.102 Y143.32 E6.0738
G1 X48.101 Y63.339 E7.95441
G1 X48.141 Y62.693 E7.96963
G1 X48.26 Y62.056 E7.98487
G1 X48.457 Y61.439 E8.0001
G1 X48.728 Y60.85 E8.01534
G1 X49.07 Y60.3 E8.03057
G1 X49.477 Y59.796 E8.0458
G1 X49.943 Y59.346 E8.06103
G0 F4200 X50.43 Y59.593
G1 F1800 X50.94 Y59.246 E8.07554
G1 X51.49 Y58.969 E8.09002
G1 X52.071 Y58.765 E8.1045
G1 X52.674 Y58.637 E8.11899
G1 X53.236 Y58.59 E8.13225
G1 X55.709 Y58.53 E8.19042
G1 X61.139 Y58.187 E8.31835
G1 X66.472 Y57.546 E8.44465
G1 X71.788 Y56.6 E8.57161
G1 X77.009 Y55.362 E8.69777
G1 X82.236 Y53.809 E8.82599
G1 X84.697 Y52.96 E8.8872
G1 X89.755 Y50.973 E9.01498
G1 X94.723 Y48.694 E9.14349
G1 X95.299 Y48.474 E9.15799
G1 X95.898 Y48.33 E9.17248
G1 X96.704 Y48.261 E9.1915
G1 X112.692 Y48.26 E9.56743
G1 X113.307 Y48.3 E9.58192
G1 X113.911 Y48.419 E9.59639
G1 X114.495 Y48.615 E9.61088
G1 X115.049 Y48.886 E9.62538
G1 X115.563 Y49.226 E9.63987
G1 X116.028 Y49.629 E9.65434
G1 X116.515 Y50.191 E9.67182
G1 X118.593 Y53.008 E9.75413
G1 X122.007 Y57.228 E9.88176
G1 X125.631 Y61.224 E10.00861
G1 X129.452 Y64.986 E10.13469
G1 X134.313 Y69.224 E10.28633
G1 X134.75 Y69.658 E10.30081
G1 X135.127 Y70.145 E10.31529
G1 X135.438 Y70.677 E10.32978
G1 X135.678 Y71.244 E10.34426
G1 X135.842 Y71.838 E10.35874
G1 X135.928 Y72.448 E10.37323
G1 X135.941 Y72.804 E10.38161
G1 X135.941 Y129.192 E11.70747
G1 X135.901 Y129.807 E11.72196
G1 X135.782 Y130.411 E11.73643
G1 X135.585 Y130.995 E11.75093
G1 X135.315 Y131.549 E11.76542
G1 X134.975 Y132.063 E11.77991
G1 X134.572 Y132.529 E11.79439
G1 X134.078 Y132.964 E11.80987
G1 X132.995 Y133.793 E11.84194
G1 X131.444 Y135.001 E11.88816
G1 X127.302 Y138.491 E12.01552
G1 X123.343 Y142.228 E12.14353
G1 X121.536 Y144.085 E12.20445
G1 X117.2 Y149.008 E12.35871
G1 X116.329 Y150.046 E12.39057
G1 X115.904 Y150.491 E12.40504
G1 X115.423 Y150.877 E12.41954
G1 X114.898 Y151.198 E12.43401
G1 X114.334 Y151.448 E12.44851
G1 X113.744 Y151.623 E12.46298
G1 X113.135 Y151.72 E12.47748
G1 X112.691 Y151.741 E12.48793
G1 X96.696 Y151.739 E12.86403
G1 X96.082 Y151.699 E12.87849
G1 X95.56 Y151.601 E12.89098
G1 X89.861 Y150.196 E13.029
G1 X87.319 Y149.688 E13.08995
G1 X81.962 Y148.85 E13.21744
G1 X76.549 Y148.313 E13.34534
G1 X73.94 Y148.167 E13.40678
G1 X69.84 Y148.08 E13.50321
G1 X53.349 Y148.07 E13.89097
G1 X52.734 Y148.03 E13.90546
G1 X52.13 Y147.91 E13.91994
G1 X51.546 Y147.713 E13.93443
G1 X50.993 Y147.443 E13.9489
G1 X50.479 Y147.103 E13.96339
G1 X50.013 Y146.699 E13.97789
G1 X49.604 Y146.238 E13.99238
G1 X49.258 Y145.729 E14.00685
G1 X48.981 Y145.178 E14.02135
G1 X48.777 Y144.597 E14.03583
G1 X48.65 Y143.994 E14.05032
G1 X48.602 Y143.32 E14.06621
G1 X48.601 Y63.339 E15.94682
G1 X48.641 Y62.724 E15.96131
G1 X48.76 Y62.12 E15.97579
G1 X48.957 Y61.536 E15.99028
G1 X49.227 Y60.982 E16.00477
G1 X49.567 Y60.468 E16.01926
G1 X49.97 Y60.003 E16.03373
G1 X50.43 Y59.593 E16.04822
G0 F4200 X50.462 Y60.222
G1 F1800 X50.916 Y59.856 E16.06193
G1 X51.415 Y59.556 E16.07562
G1 X51.951 Y59.326 E16.08933
G1 X52.513 Y59.172 E16.10303
G1 X53.248 Y59.09 E16.12042
G1 X55.728 Y59.03 E16.17875
G1 X61.177 Y58.685 E16.30713
G1 X66.563 Y58.038 E16.43469
G1 X71.889 Y57.09 E16.56189
G1 X77.121 Y55.85 E16.68832
G1 X82.384 Y54.286 E16.81741
G1 X84.878 Y53.426 E16.87944
G1 X89.952 Y51.433 E17.00762
G1 X94.932 Y49.148 E17.13646
G1 X95.477 Y48.942 E17.15016
G1 X96.045 Y48.812 E17.16386
G1 X96.704 Y48.761 E17.1794
G1 X112.692 Y48.76 E17.55533
G1 X113.273 Y48.8 E17.56902
G1 X113.844 Y48.919 E17.58274
G1 X114.392 Y49.115 E17.59642
G1 X114.909 Y49.384 E17.61012
G1 X115.384 Y49.722 E17.62383
G1 X115.809 Y50.121 E17.63754
G1 X116.112 Y50.487 E17.64871
G1 X118.204 Y53.323 E17.73157
G1 X121.626 Y57.553 E17.85951
G1 X125.263 Y61.563 E17.9868
G1 X129.117 Y65.358 E18.11398
G1 X133.984 Y69.601 E18.2658
G1 X134.396 Y70.013 E18.2795
G1 X134.748 Y70.477 E18.29319
G1 X135.032 Y70.986 E18.3069
G1 X135.245 Y71.528 E18.32059
G1 X135.381 Y72.095 E18.3343
G1 X135.441 Y72.804 E18.35103
G1 X135.441 Y129.192 E19.67689
G1 X135.401 Y129.773 E19.69059
G1 X135.282 Y130.344 E19.7043
G1 X135.086 Y130.893 E19.71801
G1 X134.817 Y131.409 E19.73169
G1 X134.479 Y131.885 E19.74542
G1 X134.08 Y132.309 E19.75911
G1 X133.774 Y132.567 E19.76852
G1 X132.658 Y133.421 E19.80156
G1 X131.14 Y134.604 E19.84681
G1 X126.972 Y138.115 E19.97495
G1 X123.007 Y141.857 E20.10315
G1 X121.155 Y143.761 E20.1656
G1 X116.84 Y148.661 E20.31912
G1 X115.947 Y149.724 E20.35176
G1 X115.542 Y150.144 E20.36548
G1 X115.084 Y150.504 E20.37918
G1 X114.581 Y150.798 E20.39288
G1 X114.042 Y151.021 E20.4066
G1 X113.479 Y151.168 E20.42028
G1 X112.691 Y151.241 E20.43888
G1 X96.696 Y151.239 E20.81498
G1 X96.115 Y151.199 E20.82867
G1 X95.679 Y151.115 E20.83911
G1 X89.985 Y149.711 E20.97701
G1 X87.401 Y149.195 E21.03896
G1 X82.016 Y148.352 E21.16712
G1 X76.604 Y147.816 E21.295
G1 X73.95 Y147.667 E21.3575
G1 X69.85 Y147.58 E21.45393
G1 X53.349 Y147.57 E21.84192
G1 X52.768 Y147.53 E21.85561
G1 X52.198 Y147.41 E21.86931
G1 X51.649 Y147.214 E21.88302
G1 X51.132 Y146.944 E21.89673
G1 X50.657 Y146.607 E21.91042
G1 X50.233 Y146.207 E21.92413
G1 X49.868 Y145.753 E21.93783
G1 X49.567 Y145.254 E21.95153
G1 X49.338 Y144.718 E21.96524
G1 X49.185 Y144.156 E21.97893
G1 X49.102 Y143.32 E21.99868
G1 X49.101 Y63.339 E23.87929
G1 X49.141 Y62.758 E23.89299
G1 X49.26 Y62.187 E23.9067
G1 X49.456 Y61.638 E23.92041
G1 X49.725 Y61.122 E23.93409
G1 X50.063 Y60.646 E23.94782
G1 X50.462 Y60.222 E23.96151
G1 F1800 E22.96151
G0 F4200 X54.106 Y62.665
G0 X54.106 Y64.094
G0 X65.217 Y122.71
G0 X76.773 Y122.71
G0 X78.26 Y67.553
G0 X78.358 Y67.536
;TYPE:WALL-INNER
G1 F1800 E23.96151
G1 X78.425 Y67.766 E23.96714
G1 X78.533 Y67.966 E23.97248
G1 X78.672 Y68.138 E23.97768
G1 X78.845 Y68.283 E23.98299
G1 X79.048 Y68.394 E23.98843
G1 X79.264 Y68.459 E23.99374
G1 X79.476 Y68.482 E23.99875
G1 X79.701 Y68.467 E24.00405
G1 X79.931 Y68.4 E24.00969
G1 X80.132 Y68.291 E24.01506
G1 X80.305 Y68.15 E24.02031
G1 X80.448 Y67.977 E24.02559
G1 X80.556 Y67.78 E24.03087
G1 X80.623 Y67.565 E24.03616
G1 X80.647 Y67.347 E24.04132
G1 X80.63 Y67.12 E24.04667
G1 X80.565 Y66.895 E24.05218
G1 X80.456 Y66.694 E24.05756
G1 X80.317 Y66.522 E24.06276
G1 X80.143 Y66.376 E24.0681
G1 X79.942 Y66.267 E24.07347
G1 X79.729 Y66.202 E24.07871
G1 X79.512 Y66.178 E24.08384
G1 X79.285 Y66.195 E24.0892
G1 X79.061 Y66.26 E24.09468
G1 X78.857 Y66.369 E24.10012
G1 X78.685 Y66.51 E24.10535
G1 X78.543 Y66.68 E24.11056
G1 X78.433 Y66.88 E24.11592
G1 X78.366 Y67.098 E24.12129
G1 X78.343 Y67.311 E24.12632
G1 X78.358 Y67.536 E24.13163
G0 F4200 X78.26 Y67.553
G0 X76.773 Y122.71
G0 X65.175 Y122.752
G0 X65.245 Y122.682
G1 F1800 X76.745 Y122.682 E24.40203
G1 X76.745 Y64.08 E25.77995
G1 X82.245 Y64.08 E25.90927
G1 X82.245 Y142.58 E27.75506
G1 X54.093 Y142.58 E28.417
G1 X54.092 Y64.33 E30.25691
G1 X54.092 Y64.08 E30.26279
G1 X54.342 Y64.08 E30.26659
G1 X65.245 Y64.08 E30.52295
G1 X65.245 Y122.682 E31.90087
G0 F4200 X65.745 Y122.182
;TYPE:WALL-OUTER
G1 F1800 X76.245 Y122.182 E32.14776
G1 X76.245 Y63.58 E33.52568
G1 X82.745 Y63.58 E33.67852
G1 X82.745 Y143.08 E35.54782
G1 X53.593 Y143.08 E36.23327
G1 X53.592 Y63.83 E38.09669
G1 X53.592 Y63.58 E38.10257
G1 X53.842 Y63.58 E38.10638
G1 X65.745 Y63.58 E38.38625
G1 X65.745 Y122.182 E39.76417
G0 F4200 X65.995 Y122.182
G0 X65.995 Y122.782
G0 X76.773 Y122.71
G0 X78.277 Y67.616
G0 X78.853 Y67.449
G1 F1800 X78.89 Y67.575 E39.76726
G1 X78.951 Y67.688 E39.77028
G1 X79.03 Y67.786 E39.77324
G1 X79.128 Y67.868 E39.77625
G1 X79.242 Y67.93 E39.7793
G1 X79.364 Y67.967 E39.78229
G1 X79.487 Y67.98 E39.7852
G1 X79.614 Y67.972 E39.78819
G1 X79.74 Y67.935 E39.79128
G1 X79.853 Y67.874 E39.7943
G1 X79.951 Y67.794 E39.79728
G1 X80.032 Y67.696 E39.80027
G1 X80.093 Y67.584 E39.80326
G1 X80.131 Y67.462 E39.80627
G1 X80.145 Y67.338 E39.8092
G1 X80.135 Y67.21 E39.81222
G1 X80.099 Y67.085 E39.81528
G1 X80.038 Y66.972 E39.8183
G1 X79.959 Y66.874 E39.82126
G1 X79.861 Y66.792 E39.82426
G1 X79.748 Y66.731 E39.82728
G1 X79.627 Y66.694 E39.83026
G1 X79.503 Y66.68 E39.83319
G1 X79.375 Y66.69 E39.83621
G1 X79.25 Y66.726 E39.83927
G1 X79.136 Y66.787 E39.84231
G1 X79.038 Y66.867 E39.84529
G1 X78.958 Y66.963 E39.84822
G1 X78.896 Y67.076 E39.85125
G1 X78.858 Y67.199 E39.85428
G1 X78.845 Y67.322 E39.85719
G1 X78.853 Y67.449 E39.86018
G0 F4200 X78.89 Y67.575
G0 X78.946 Y67.68
G0 X78.123 Y68.239
;TYPE:SKIN
G1 F1800 X78.321 Y68.483 E39.86757
G1 X78.567 Y68.689 E39.87511
G1 X78.858 Y68.849 E39.88292
G1 X79.166 Y68.941 E39.89048
G1 X79.466 Y68.974 E39.89758
G1 X79.787 Y68.953 E39.90514
G1 X80.119 Y68.856 E39.91327
G1 X80.406 Y68.7 E39.92096
G1 X80.652 Y68.499 E39.92842
G1 X80.856 Y68.253 E39.93594
G1 X81.009 Y67.972 E39.94346
G1 X81.105 Y67.665 E39.95103
G1 X81.139 Y67.355 E39.95836
G1 X81.114 Y67.032 E39.96598
G1 X81.021 Y66.709 E39.97388
G1 X80.865 Y66.421 E39.98158
G1 X80.668 Y66.177 E39.98895
G1 X80.42 Y65.969 E39.99656
G1 X80.132 Y65.813 E40.00427
G1 X79.829 Y65.72 E40.01172
G1 X79.52 Y65.686 E40.01903
G1 X79.197 Y65.711 E40.02665
G1 X78.875 Y65.803 E40.03452
G1 X78.584 Y65.96 E40.04229
G1 X78.338 Y66.161 E40.04976
G1 X78.137 Y66.402 E40.05714
G1 X77.98 Y66.688 E40.06481
G1 X77.884 Y66.998 E40.07245
G1 X77.851 Y67.301 E40.07961
G1 X77.872 Y67.622 E40.08718
G1 X77.969 Y67.953 E40.09529
G1 X78.123 Y68.239 E40.10292
G0 F4200 X77.235 Y64.57
G1 F1800 X81.755 Y64.57 E40.2092
G1 X81.755 Y142.09 E42.03195
G1 X54.583 Y142.09 E42.67085
G1 X54.582 Y64.57 E44.49359
G1 X64.755 Y64.57 E44.73279
G1 X64.755 Y123.172 E46.11071
G1 X77.235 Y123.172 E46.40415
G1 X77.235 Y64.57 E47.78207
G0 F4200 X81.53 Y65.266
G1 F1800 X81.058 Y64.795 E47.79775
G0 F4200 X80.351 Y64.795
G1 F1800 X81.53 Y65.973 E47.83694
G1 X81.618 Y66.061
G0 F4200 X81.53 Y66.68
G1 F1800 X79.644 Y64.795 E47.89964
G1 X79.556 Y64.707
G0 F4200 X79.274 Y65.131
G1 F1800 X78.602 Y65.167 E47.92325
G1 X79.063 Y65.628
G0 F4200 X78.484 Y65.756
G1 F1800 X77.522 Y64.795 E47.95522
G1 X77.434 Y64.707
G0 F4200 X77.782 Y65.761
G1 F1800 X77.64 Y66.326 E47.97201
G1 X77.555 Y66.948 E47.98125
G1 X77.571 Y67.671 E47.98819
G0 F4200 X77.459 Y68.266
G1 F1800 X81.53 Y72.337 E48.12356
G1 X81.618 Y72.425
G0 F4200 X81.53 Y71.63
G1 F1800 X79.036 Y69.137 E48.20648
G1 X78.948 Y69.049
G0 F4200 X79.785 Y69.179
G1 F1800 X81.53 Y70.923 E48.26449
G1 X81.618 Y71.011
G0 F4200 X81.53 Y70.216
G1 F1800 X80.317 Y69.003 E48.30482
G1 X80.229 Y68.915
G0 F4200 X80.738 Y68.718
G1 F1800 X81.53 Y69.509 E48.33114
G1 X81.618 Y69.597
G0 F4200 X81.297 Y68.569
G1 F1800 X81.406 Y67.971 E48.34298
G1 X81.44 Y67.298 E48.35005
G0 F4200 X81.351 Y67.209
G0 X80.154 Y68.324
G0 X79.902 Y68.426
G0 X77.459 Y68.974
G1 F1800 X81.53 Y73.044 E48.4854
G1 X81.618 Y73.132
G0 F4200 X81.53 Y73.751
G1 F1800 X77.459 Y69.681 E48.62076
G1 X77.371 Y69.593
G0 F4200 X77.459 Y70.388
G1 F1800 X81.53 Y74.459 E48.75613
G1 X81.618 Y74.547
G0 F4200 X81.53 Y75.166
G1 F1800 X77.459 Y71.095 E48.8915
G1 X77.371 Y71.007
G0 F4200 X77.459 Y71.802
G1 F1800 X81.53 Y75.873 E49.02687
G1 X81.618 Y75.961
G0 F4200 X81.53 Y76.58
G1 F1800 X77.459 Y72.509 E49.16224
G1 X77.371 Y72.421
G0 F4200 X77.459 Y73.216
G1 F1800 X81.53 Y77.287 E49.29761
G1 X81.618 Y77.375
G0 F4200 X81.53 Y77.994
G1 F1800 X77.459 Y73.923 E49.43299
G1 X77.371 Y73.835
G0 F4200 X77.459 Y74.63
G1 F1800 X81.53 Y78.701 E49.56836
G1 X81.618 Y78.789
G0 F4200 X81.53 Y79.408
G1 F1800 X77.459 Y75.337 E49.70373
G1 X77.371 Y75.249
G0 F4200 X77.459 Y76.045
G1 F1800 X81.53 Y80.115 E49.83908
G1 X81.618 Y80.203
G0 F4200 X81.53 Y80.823
G1 F1800 X77.459 Y76.752 E49.97446
G1 X77.371 Y76.664
G0 F4200 X77.459 Y77.459
G1 F1800 X81.53 Y81.53 E50.10983
G1 X81.618 Y81.618
G0 F4200 X81.53 Y82.237
G1 F1800 X77.459 Y78.166 E50.2452
G1 X77.371 Y78.078
G0 F4200 X77.459 Y78.873
G1 F1800 X81.53 Y82.944 E50.38057
G1 X81.618 Y83.032
G0 F4200 X81.53 Y83.651
G1 F1800 X77.459 Y79.58 E50.51594
G1 X77.371 Y79.492
G0 F4200 X77.459 Y80.287
G1 F1800 X81.53 Y84.358 E50.65131
G1 X81.618 Y84.446
G0 F4200 X81.53 Y85.065
G1 F1800 X77.459 Y80.994 E50.78669
G1 X77.371 Y80.906
G0 F4200 X77.459 Y81.701
G1 F1800 X81.53 Y85.772 E50.92206
G1 X81.618 Y85.86
G0 F4200 X81.53 Y86.479
G1 F1800 X77.459 Y82.409 E51.05741
G1 X77.371 Y82.321
G0 F4200 X77.459 Y83.116
G1 F1800 X81.53 Y87.186 E51.19277
G1 X81.618 Y87.274
G0 F4200 X81.53 Y87.894
G1 F1800 X77.459 Y83.823 E51.32814
G1 X77.371 Y83.735
G0 F4200 X77.459 Y84.53
G1 F1800 X81.53 Y88.601 E51.46351
G1 X81.618 Y88.689
G0 F4200 X81.53 Y89.308
G1 F1800 X77.459 Y85.237 E51.59888
G1 X77.371 Y85.149
G0 F4200 X77.459 Y85.944
G1 F1800 X81.53 Y90.015 E51.73425
G1 X81.618 Y90.103
G0 F4200 X81.53 Y90.722
G1 F1800 X77.459 Y86.651 E51.86963
G1 X77.371 Y86.563
G0 F4200 X77.459 Y87.358
G1 F1800 X81.53 Y91.429 E52.005
G1 X81.618 Y91.517
G0 F4200 X81.53 Y92.136
G1 F1800 X77.459 Y88.065 E52.14037
G1 X77.371 Y87.977
G0 F4200 X77.459 Y88.773
G1 F1800 X81.53 Y92.843 E52.27572
G1 X81.618 Y92.931
G0 F4200 X81.53 Y93.55
G1 F1800 X77.459 Y89.48 E52.41108
G1 X77.371 Y89.392
G0 F4200 X77.459 Y90.187
G1 F1800 X81.53 Y94.258 E52.54645
